public/icons/cart-icon.svg

<svg width="100" height="100" viewBox="0 0 100 100" fill="none" xmlns="http://www.w3.org/2000/svg">
<path d="M70.8334 75C73.0436 75 75.1632 75.878 76.726 77.4408C78.2888 79.0036 79.1668 81.1232 79.1668 83.3334C79.1668 85.5435 78.2888 87.6631 76.726 89.2259C75.1632 90.7887 73.0436 91.6667 70.8334 91.6667C68.6233 91.6667 66.5037 90.7887 64.9409 89.2259C63.3781 87.6631 62.5001 85.5435 62.5001 83.3334C62.5001 78.7084 66.2084 75 70.8334 75ZM4.16675 8.33337H17.7917L21.7084 16.6667H83.3334C84.4385 16.6667 85.4983 17.1057 86.2797 17.8871C87.0611 18.6685 87.5001 19.7283 87.5001 20.8334C87.5001 21.5417 87.2917 22.25 87.0001 22.9167L72.0834 49.875C70.6667 52.4167 67.9168 54.1667 64.7918 54.1667H33.7501L30.0001 60.9584L29.8751 61.4584C29.8751 61.7346 29.9848 61.9996 30.1802 62.195C30.3755 62.3903 30.6405 62.5 30.9167 62.5H79.1668V70.8334H29.1667C26.9566 70.8334 24.837 69.9554 23.2742 68.3926C21.7114 66.8298 20.8334 64.7102 20.8334 62.5C20.8334 61.0417 21.2084 59.6667 21.8334 58.5L27.5001 48.2917L12.5001 16.6667H4.16675V8.33337ZM29.1667 75C31.3769 75 33.4965 75.878 35.0593 77.4408C36.6221 79.0036 37.5001 81.1232 37.5001 83.3334C37.5001 85.5435 36.6221 87.6631 35.0593 89.2259C33.4965 90.7887 31.3769 91.6667 29.1667 91.6667C26.9566 91.6667 24.837 90.7887 23.2742 89.2259C21.7114 87.6631 20.8334 85.5435 20.8334 83.3334C20.8334 78.7084 24.5417 75 29.1667 75ZM66.6668 45.8334L78.2501 25H25.5834L35.4167 45.8334H66.6668Z" fill="#1A4F8E"/>
</svg>

<svg xmlns="http://www.w3.org/2000/svg" width="100" height="100" fill="none"><path fill="#1A4F8E" d="M70.833 75a8.333 8.333 0 1 1-8.333 8.333A8.305 8.305 0 0 1 70.833 75M4.167 8.333h13.625l3.916 8.334h61.625a4.167 4.167 0 0 1 4.167 4.166c0 .709-.208 1.417-.5 2.084L72.083 49.875c-1.416 2.542-4.166 4.292-7.291 4.292H33.75L30 60.958l-.125.5a1.04 1.04 0 0 0 1.042 1.042h48.25v8.333h-50a8.333 8.333 0 0 1-8.334-8.333c0-1.458.375-2.833 1-4L27.5 48.292l-15-31.625H4.167zm25 66.667a8.333 8.333 0 1 1-8.334 8.333A8.305 8.305 0 0 1 29.167 75m37.5-29.167L78.25 25H25.583l9.834 20.833z"/></svg>
